X: 1130
T: Hüzzam Örnek-öz (1)
C: Rûhî Ayangil
O: Turkey
F: http://compmusic.upf.edu/node/140
N: huzzam--ornek-oz--sofyan--1--ruhi_ayangil
N: makam= huzzam
N: form= ornek-oz
N: usul= sofyan = 4/4
M: 4/4
L: 1/16
K: C _1/4B _3/4e ^3/4f 
Q: 1/4=54
%%MIDI tuningsystem comma53
Bcdc B2c2 d4 e4  | ^fg2f _7/8e2f2 d6a2  | \
w:   |   | 
ga_ba g2^f2 e3d c2e2  | 
w:   | 
d2c4B^A B8  | |


